X: 2103
T: Çok Sürmedi, Geçti...
C: Hâfız Hüsnü Efendi (Enderûnlu)
O: Turkey
F: http://compmusic.upf.edu/node/140
N: bestenigar--sarki--kapali_curcuna--cok_surmedi--enderunlu_hafiz_husnu_efendi
N: makam= bestenigar
N: form= sarki
N: usul= kapali_curcuna = 10/8
M: 10/8
L: 1/16
K: C _2/4B _3/4d  
Q: 1/4=216
%%MIDI tuningsystem comma53
d4-dc4-c  | _1/4B4-_1/4BA4-A  | c4-c_1/4B4-_1/4B  | \
w:  ARANAĞME  |   |   | 
A2 c_1/4B AA G^F3  | ^FG AA GA _1/4Bc cB  | 
w:   |   | 
cd ef aG fe2d  | c2 dc _1/4BA Bc3  | \
w:   |   | 
d4-dc4-c  | _1/4B4-_1/4BA4-A  | 
w:  ARANAĞME  |   | 
c4-c_1/4B4-_1/4B  | A2 c_1/4B AA G^F3  | \
w:   |   | 
^FG AA GA _1/4Bc cB  | 
w:   | 
A2 dc _1/4BB AA2G  | A2 _1/4BA GG ^FF3  | \
w:   |   | 
^F4-^Fd2c2_1/4B  | e2 dd cc _1/4BB2A  | 
w:  Çok  sür  |  me *  di  *  geç  | 
A2 _1/4Bc BA G^F3  | c3c2d {e}d/c/d3  | \
w:  ti  *  ta *  râb_ *  ı   |  şev   | 
e3f2g fe dc  | e2 dd cc _1/4BA2B  | 
w:   |  şevk_ *  ı  *  ba *  hâ  | 
c2 dc _1/4BA G^F3  | ^F4-^Fd2c2_1/4B  | \
w:  rım   SAZ  |  Çok  sür  | 
e2 dd cc _1/4BB2A  | A2 _1/4Bc BA G^F3  | 
w:  me *  di  *  geç  |  ti  *  ta *  râb_ *  ı   | 
c3c2d {e}d/c/d3  | e3f2g fe dc  | e2 dd cc _1/4BA2B  | 
w:  şev   |   |  şevk_ *  ı  *  ba *  hâ  | 
c2 dc _1/4BA Bc3  | c3d2e2f2g  | a2 gg ff ee2d  | \
w:  rım   SAZ  |  Sol *  du   |  e *  me *  lim   | 
c2 dd2d cc2_1/4B  | 
w:  gon *  ca la *  rın   | 
_1/4B2 AG2B {c}B/A/B3  | A_1/4B cd ed cB AG  | \
w:  ren   |   | 
c2 _1/4BB AA GG2^F  | 
w:  reng_ *  i  *  i *  zâ  | 
^F2 dc _1/4BA Bc3  | c3d2e2f2g  | a2 gg ff ee2d  | \
w:  rım   SAZ  |  Sol *  du   |  e *  me *  lim   | 
c2 dd2d cc2_1/4B  | 
w:  gon *  ca la *  rın   | 
_1/4B2 AG2B {c}B/A/B3  | A_1/4B cd ed cB AG  | \
w:  ren   |   | 
c2 _1/4BB AA GG2^F  | 
w:  reng_ *  i  *  i *  zâ  | 
^F2 g^f ^e=d ef3  | =d3^f2f ^3/4ef3  | \
w:  rım   SAZ  |  Bir  *  gül  | 
g3a2a ga3  | g3a2_1/4b2a g^f  | 
w:  bin_ i  rak  |  sân_ ı  ta rab  | 
c'4-c'c' _1/4bb2a  | a2 c'_1/4b ag ^f^e f2  | \
w:  nâ   |   | 
c'2 _1/4bb aa gg2^f  | 
w:  nâk_ *  i *  dim_ *  am  | 
^f2 gf ^e=d ef3  | ^f3a2a2g2f  | _1/4b2 aa gf ef3  | \
w:  ma    |  Bil *  mem   |  ki  *  ne *  den   | 
e2 fg2f ef3  | 
w:  terk_ *  i  he *  vâ   | 
ef g{a}g fe de3  | de f{g}f ed cd2c  | \
w:  e   |   | 
e2 dd cc _1/4BA2B  | 
w:  et *  ti  *  he *  zâ  | 
c2 dc _1/4BA Bc3  | c3d2e2f2g  | a2 gg ff ee2d  | \
w:  rım   SAZ  |  Bil *  mem   |  ki  *  ne *  den   | 
c2 dd2d cc2_1/4B  | 
w:  terk_ *  i  he *  vâ   | 
_1/4B2 AG2B {c}B/A/B3  | A_1/4B cd ed cB AG  | \
w:  e   |   | 
c2 _1/4BB AA GG2^F  | 
w:  et *  ti  *  he *  zâ  | 
^F8-^F2  | z24  | ^F4=d4^e2^f2g2{a}gff8  | \
w:  rım    |  |  Bu  nağ me  *  i  *  *  *  dil  | 
^c4=dcd=BA3GG2{A}G^FF6z2  | 
w:  sûz_ *  *  *  *  i  *  ga *  *  *  mım   | 
^f6a2a3gg3f^e2f2g2{a}gf  | ^f8a3gf3ga8  | \
w:  düş *  tü  *  ı *  râ  |  ka   SAZ  | 
^f4a3gf4_1/4b4a2g2=f2e4a2g2f2f2e2e2d2d2c2{d}c2_1/4B2  | 
w:  Ben  böy *  le  gö nül *  *  *  ler  *  *  ya *  kı *  cı   | 
z2g2f2e2e2d2c2d2c2_1/4BAB2c2  | _1/4B4c4cdcBAGABc8  | 
w:  Bes *  *  te *  ni *  gâ  |  rım    | 
z10  | c3d2e2f2g  | a2 gg ff ee2d  | c2 dd2d cc2_1/4B  | 
w:  |  Sol *  du   |  e *  me *  lim   |  gon *  ca la *  rın   | 
_1/4B2 AG2B {c}B/A/B3  | A_1/4B cd ed cB AG  | \
w:  ren   |   | 
c2 _1/4BB AA GG2^F  | 
w:  reng_ *  i  *  i *  zâ  | 
^F2 dc _1/4BA Bc3  | c3d2e2f2g  | a2 gg ff ee2d  | \
w:  rım   SAZ  |  Sol *  du   |  e *  me *  lim   | 
c2 dd2d cc2_1/4B  | 
w:  gon *  ca la *  rın   | 
_1/4B2 AG2B {c}B/A/B3  | A_1/4B cd ed cB AG  | \
w:  ren   |   | 
c2 _1/4BB AA GG2^F  | 
w:  reng_ *  i  *  i *  zâ  | 
^F2 g^f ^e=d ef3  | |


